X: 4718
T: Boys Of Ballinamore, The
R: jig
M: 6/8
K: Dmajor
e|fed cAF|G3 ABc|AdB cAF|GFG Ade|
fed cAF|GFG ABc|AdB c/B/AG|Adc d2:|
e|fed efg|eAA eAA|fed efg|age d3|
fed efg|eAA eAA|f/g/af gec|edc d2:|

